#define battery_width 32
#define battery_height 32
static unsigned char battery_bits[] = {
  0x00, 0x00, 0x00, 0x00, 0x00, 0x00, 0x00, 0x00, 0x00, 0x00, 0x00, 0x00, 
  0x00, 0x00, 0x00, 0x00, 0x00, 0x00, 0x00, 0x00, 0x00, 0xF0, 0x03, 0x00, 
  0xE0, 0xFF, 0xFF, 0x01, 0xF0, 0xFF, 0xFF, 0x03, 0x38, 0x00, 0x00, 0x07, 
  0x18, 0x00, 0x00, 0x06, 0x1C, 0x43, 0x00, 0x1E, 0x1C, 0xC3, 0x00, 0x3E, 
  0x0C, 0xC3, 0x00, 0x38, 0x0C, 0xC3, 0x00, 0x30, 0x0C, 0xC3, 0x00, 0x30, 
  0x0C, 0xC3, 0x00, 0x30, 0x0C, 0xC3, 0x00, 0x30, 0x0C, 0xC3, 0x00, 0x30, 
  0x0C, 0xC3, 0x00, 0x30, 0x0C, 0xC3, 0x00, 0x38, 0x1C, 0xC3, 0x00, 0x3E, 
  0x1C, 0x43, 0x00, 0x1E, 0x18, 0x00, 0x00, 0x06, 0x38, 0x00, 0x00, 0x07, 
  0xF0, 0xFF, 0xFF, 0x03, 0xE0, 0xFF, 0xFF, 0x01, 0x00, 0xF0, 0x03, 0x00, 
  0x00, 0x00, 0x00, 0x00, 0x00, 0x00, 0x00, 0x00, 0x00, 0x00, 0x00, 0x00, 
  0x00, 0x00, 0x00, 0x00, 0x00, 0x00, 0x00, 0x00, };
