#define caution_width 32
#define caution_height 32
static unsigned char caution_bits[] = {
  0x00, 0x00, 0x00, 0x00, 0x00, 0x80, 0x01, 0x00, 0x00, 0xC0, 0x03, 0x00, 
  0x00, 0x60, 0x06, 0x00, 0x00, 0x20, 0x04, 0x00, 0x00, 0x18, 0x18, 0x00, 
  0x00, 0x18, 0x18, 0x00, 0x00, 0x18, 0x18, 0x00, 0x00, 0x04, 0x20, 0x00, 
  0x00, 0x84, 0x21, 0x00, 0x00, 0xC4, 0x23, 0x00, 0x00, 0xC3, 0xC3, 0x00, 
  0x00, 0xC3, 0xC3, 0x00, 0x00, 0xC3, 0xC3, 0x00, 0x80, 0xC0, 0x03, 0x01, 
  0x80, 0xC0, 0x03, 0x01, 0x80, 0xC0, 0x03, 0x01, 0x60, 0xC0, 0x03, 0x06, 
  0x60, 0x00, 0x00, 0x06, 0x60, 0x00, 0x00, 0x06, 0x10, 0xC0, 0x03, 0x08, 
  0x10, 0xE0, 0x07, 0x08, 0x10, 0xE0, 0x07, 0x08, 0x0C, 0xE0, 0x07, 0x30, 
  0x0C, 0xC0, 0x03, 0x30, 0x0C, 0x80, 0x01, 0x30, 0x02, 0x00, 0x00, 0x40, 
  0x02, 0x00, 0x00, 0x40, 0x02, 0x00, 0x00, 0x40, 0xFC, 0xFF, 0xFF, 0x3F, 
  0xF8, 0xFF, 0xFF, 0x1F, 0x00, 0x00, 0x00, 0x00, };
